img/coin.svg

<svg width="48" height="48" viewBox="0 0 48 48" fill="none" xmlns="http://www.w3.org/2000/svg">
<path opacity="0.4" d="M19.98 35.96C28.8055 35.96 35.96 28.8055 35.96 19.98C35.96 11.1545 28.8055 4 19.98 4C11.1545 4 4 11.1545 4 19.98C4 28.8055 11.1545 35.96 19.98 35.96Z" fill="#191A23"/>
<path d="M43.9402 31.98C43.9402 38.58 38.5802 43.94 31.9802 43.94C27.9002 43.94 24.3202 41.9 22.1602 38.8C30.8802 37.82 37.8202 30.88 38.8002 22.16C41.9002 24.32 43.9402 27.9 43.9402 31.98Z" fill="#191A23"/>
<path d="M22.9 19.4199L18.1 17.7399C17.62 17.5799 17.52 17.5399 17.52 16.8399C17.52 16.3199 17.88 15.8999 18.34 15.8999H21.34C21.98 15.8999 22.5 16.4799 22.5 17.1999C22.5 18.0199 23.18 18.6999 24 18.6999C24.82 18.6999 25.5 18.0199 25.5 17.1999C25.5 14.8999 23.72 13.0199 21.5 12.9199V12.8199C21.5 11.9999 20.82 11.3199 20 11.3199C19.18 11.3199 18.5 11.9799 18.5 12.8199V12.9199H18.32C16.22 12.9199 14.5 14.6799 14.5 16.8599C14.5 18.7599 15.34 19.9799 17.08 20.5799L21.9 22.2599C22.38 22.4199 22.48 22.4599 22.48 23.1599C22.48 23.6799 22.12 24.0999 21.66 24.0999H18.66C18.02 24.0999 17.5 23.5199 17.5 22.7999C17.5 21.9799 16.82 21.2999 16 21.2999C15.18 21.2999 14.5 21.9799 14.5 22.7999C14.5 25.0999 16.28 26.9799 18.5 27.0799V27.1999C18.5 28.0199 19.18 28.6999 20 28.6999C20.82 28.6999 21.5 28.0199 21.5 27.1999V27.0999H21.68C23.78 27.0999 25.5 25.3399 25.5 23.1599C25.5 21.2599 24.64 20.0399 22.9 19.4199Z" fill="#191A23"/>
</svg>

<svg xmlns="http://www.w3.org/2000/svg" width="48" height="48" fill="none"><path fill="#191A23" d="M19.98 35.96c8.825 0 15.98-7.155 15.98-15.98S28.805 4 19.98 4 4 11.155 4 19.98s7.155 15.98 15.98 15.98" opacity=".4"/><path fill="#191A23" d="M43.94 31.98c0 6.6-5.36 11.96-11.96 11.96-4.08 0-7.66-2.04-9.82-5.14 8.72-.98 15.66-7.92 16.64-16.64 3.1 2.16 5.14 5.74 5.14 9.82M22.9 19.42l-4.8-1.68c-.48-.16-.58-.2-.58-.9 0-.52.36-.94.82-.94h3c.64 0 1.16.58 1.16 1.3 0 .82.68 1.5 1.5 1.5s1.5-.68 1.5-1.5c0-2.3-1.78-4.18-4-4.28v-.1c0-.82-.68-1.5-1.5-1.5s-1.5.66-1.5 1.5v.1h-.18c-2.1 0-3.82 1.76-3.82 3.94 0 1.9.84 3.12 2.58 3.72l4.82 1.68c.48.16.58.2.58.9 0 .52-.36.94-.82.94h-3c-.64 0-1.16-.58-1.16-1.3 0-.82-.68-1.5-1.5-1.5s-1.5.68-1.5 1.5c0 2.3 1.78 4.18 4 4.28v.12c0 .82.68 1.5 1.5 1.5s1.5-.68 1.5-1.5v-.1h.18c2.1 0 3.82-1.76 3.82-3.94 0-1.9-.86-3.12-2.6-3.74"/></svg>
